svg/star_david.svg

<svg xmlns="http://www.w3.org/2000/svg" viewBox="0 0 24 24"><path d="M12 2 9.1 7H3.3l3 5-3 5h5.8l2.9 5 2.9-5h5.8l-3-5 3-5h-5.8zm0 3 1.2 2h-2.4zM8.2 8.5l-1.1 2-1.2-2zm1.8 0h4l2 3.5-2 3.5h-4L8 12zm8 0-1.2 2-1.1-2zm-10.9 5 1.1 2H6zm9.8 0 1.2 2h-2.3zM13.3 17 12 19l-1.2-2z"/></svg>

<svg xmlns="http://www.w3.org/2000/svg" id="mdi-star-david" viewBox="0 0 24 24"><path d="M12,2L9.1,7H3.3L6.3,12L3.3,17H9.1L12,22L14.9,17H20.7L17.7,12L20.7,7H14.9L12,2M12,5L13.2,7H10.8L12,5M8.2,8.5L7.1,10.5L5.9,8.5H8.2M10,8.5H14L16,12L14,15.5H10L8,12L10,8.5M18,8.5L16.8,10.5L15.7,8.5H18M7.1,13.5L8.2,15.5H6L7.1,13.5M16.9,13.5L18.1,15.5H15.8L16.9,13.5M13.3,17L12,19L10.8,17H13.3Z" /></svg>
